src/resources/assets/public/logo-text.svg

<svg width="120" height="18" viewBox="0 0 120 18" fill="none" xmlns="http://www.w3.org/2000/svg">
<g clip-path="url(#clip0)">
<path d="M0 11.3742L4.51585 1.1843H8.54038L7.51906 7.53895L12.126 1.1843H16.1478L11.6319 11.3742H8.63975L10.0199 8.26116L10.7652 6.67561L11.7561 4.8424H11.7313L6.9739 11.3742H4.65801L5.71383 4.8424H5.68622L5.15901 6.33526L4.52276 7.92081L2.99217 11.3797L0 11.3742Z" fill="white"/>
<path d="M13.5518 11.3742L18.069 1.1843H26.3499L25.2913 3.56262H20.3407L19.6976 5.0195H23.8905L22.8457 7.39782H18.6528L17.942 8.99306H23.0941L22.0355 11.3714L13.5518 11.3742Z" fill="white"/>
<path d="M33.4783 11.4018H31.3294L31.6399 10.3974C31.15 10.774 30.6079 11.0769 30.0307 11.2967C29.3916 11.5347 28.714 11.652 28.0322 11.6426C27.5029 11.6513 26.9761 11.5675 26.4754 11.3949C26.0453 11.2474 25.6616 10.9887 25.363 10.645C25.0651 10.2867 24.8776 9.84926 24.8234 9.38599C24.7584 8.79838 24.8119 8.20366 24.9807 7.63719C25.096 7.21638 25.2437 6.80515 25.4224 6.40721C25.773 5.60763 26.2279 4.85814 26.7749 4.17831C27.3044 3.51619 27.922 2.93008 28.6105 2.43642C29.2804 1.95631 30.017 1.57733 30.7967 1.31159C31.5622 1.04931 32.3657 0.915614 33.1747 0.915894C34.4361 0.915894 35.3562 1.23872 35.935 1.88438C36.5137 2.53004 36.6402 3.4667 36.3145 4.69437H33.1526C33.2878 3.83473 32.9088 3.40536 32.0153 3.40629C31.3713 3.40629 30.7705 3.67285 30.2129 4.20598C29.6553 4.73911 29.1713 5.46778 28.7609 6.39199C28.6284 6.69021 28.5177 6.99771 28.4297 7.31205C28.2797 7.87746 28.294 8.32573 28.4725 8.65686C28.651 8.98799 29.0512 9.1531 29.6732 9.15217C30.0949 9.13527 30.5071 9.02168 30.8781 8.82012C31.2826 8.63089 31.6319 8.34078 31.8925 7.97754H30.4268L31.4122 5.76386H35.9667L33.4783 11.4018Z" fill="white"/>
<path d="M34.5866 11.3742L42.7447 1.1843H46.1329L45.2593 11.3742H41.947L42.1512 10.0293H38.8389L37.8589 11.3742H34.5866ZM43.0607 4.25578L40.3984 7.90697H42.5087L43.0607 4.25578Z" fill="white"/>
<path d="M77.4513 13.8051H71.8603L71.1744 15.3491H76.7654L77.4513 13.8051Z" fill="white"/>
<path d="M56.6717 13.1133C56.6048 12.8401 56.609 12.5542 56.6841 12.2832H51.3319C51.2432 12.5001 51.1681 12.7224 51.107 12.9487C51.0904 13.0068 51.078 13.0635 51.0656 13.1202L56.6717 13.1133Z" fill="white"/>
<path d="M78.4436 11.5679H72.854L72.1681 13.1133H77.7577L78.4436 11.5679Z" fill="white"/>
<path d="M115.323 14.6283C115.401 14.454 115.486 14.2557 115.577 14.0334C115.612 13.9559 115.646 13.8798 115.679 13.8051H110.314C110.228 14.0274 110.119 14.2778 109.988 14.5564C109.858 14.8349 109.747 15.0992 109.656 15.3491H115.007C115.105 15.1361 115.204 14.8967 115.323 14.6283Z" fill="white"/>
<path d="M105.633 13.8051H100.047L99.3612 15.3491H104.949L105.633 13.8051Z" fill="white"/>
<path d="M60.8812 11.7311C61.3008 11.9359 61.4572 12.2366 61.3505 12.6332L61.3311 12.7038C61.309 12.7321 61.2926 12.7646 61.2828 12.7992C61.2342 12.9114 61.1716 13.0169 61.0965 13.1133H66.4266C66.6165 12.7894 66.787 12.4544 66.9373 12.1102C67.0242 11.9234 67.0974 11.7436 67.1595 11.5679H60.5099C60.6507 11.6218 60.7749 11.6786 60.8812 11.7311Z" fill="white"/>
<path d="M97.7464 15.3491L97.8789 13.8051H82.6476L81.4109 15.3491H86.7259L86.7673 15.2924H92.3335L92.3252 15.3491H97.7464Z" fill="white"/>
<path d="M90.0231 10.8761L93.8571 5.60478L93.0594 10.8761H98.1301L99.0244 0.45105H93.3396L84.9924 10.8761H90.0231Z" fill="white"/>
<path d="M65.9712 13.8051H60.0517C59.5236 13.9826 58.9691 14.0682 58.4121 14.0583C58.0113 14.0744 57.6131 13.9872 57.2555 13.8051H50.9552C50.9222 14.1797 50.9464 14.5571 51.0269 14.9244C51.0585 15.0688 51.1005 15.2108 51.1525 15.3491H64.54C65.0779 14.8947 65.5586 14.3762 65.9712 13.8051Z" fill="white"/>
<path d="M100.354 13.1133H105.939L106.613 11.5914H108.318C109.313 11.5914 109.967 11.7141 110.281 11.9594C110.574 12.1891 110.656 12.5751 110.535 13.1161H115.964C116.072 12.8283 116.159 12.5627 116.223 12.3275C116.291 12.0794 116.34 11.8263 116.369 11.5706H101.038L100.354 13.1133Z" fill="white"/>
<path d="M92.2203 16.0409L91.9912 17.549H97.5573L97.6871 16.0409H92.2203Z" fill="white"/>
<path d="M92.9311 11.7311H89.4006L89.5193 11.5679H84.439L83.201 13.1133H97.9382L98.0707 11.5679H92.9545L92.9311 11.7311Z" fill="white"/>
<path d="M99.0548 16.0409L98.3868 17.549H103.978L104.643 16.0409H99.0548Z" fill="white"/>
<path d="M119.031 1.3296C118.137 0.744824 116.466 0.451972 114.02 0.45105H105.965L101.344 10.8761H116.347C116.32 10.7399 116.266 10.6105 116.188 10.4956C115.933 10.1479 115.438 9.81538 114.702 9.49809C115.752 9.2378 116.719 8.71409 117.512 7.97618C118.321 7.22861 118.97 6.32387 119.419 5.317C119.594 4.93261 119.74 4.53529 119.855 4.12853C120.199 2.85197 119.925 1.919 119.031 1.3296ZM114 5.86488C114 5.88149 113.973 5.93683 113.931 6.03091C113.902 6.09253 113.878 6.15637 113.858 6.22184C113.631 6.77082 113.204 7.21224 112.663 7.45597C112.111 7.7087 111.386 7.83552 110.488 7.83644H108.28L109.779 4.44121H112.384C113 4.44121 113.454 4.55973 113.747 4.79678C114.039 5.03383 114.124 5.38987 114 5.86488Z" fill="white"/>
<path d="M80.8562 16.0409L79.6499 17.549H85.1222L86.2208 16.0409H80.8562Z" fill="white"/>
<path d="M114.573 16.456C114.597 16.3688 114.646 16.2304 114.72 16.0409H109.389C109.251 16.4311 109.134 16.7756 109.055 17.073C109.029 17.1746 109.01 17.2776 108.996 17.3816C108.975 17.4618 108.96 17.5199 108.952 17.549H114.61L114.845 17.026C114.563 17.026 114.472 16.836 114.573 16.456Z" fill="white"/>
<path d="M70.868 16.0409L70.1986 17.549H75.7896L76.4576 16.0409H70.868Z" fill="white"/>
<path d="M55.3441 9.64059C55.7917 9.9687 56.2851 10.2288 56.8084 10.4126C57.2142 10.5556 57.7142 10.7101 58.3086 10.8761H67.3514C67.4657 10.3758 67.438 9.85336 67.2713 9.36803C67.0829 8.86051 66.7462 8.42173 66.3052 8.109C65.8637 7.78957 65.3796 7.53388 64.8671 7.34943C64.3537 7.16495 63.6871 6.95512 62.8673 6.71991C61.8809 6.4515 61.1757 6.2103 60.7515 5.99632C60.3273 5.78233 60.1677 5.47748 60.2726 5.08179L60.3126 4.98079C60.3126 4.96557 60.3223 4.94205 60.3319 4.91023C60.6144 4.26457 61.3505 3.94174 62.5402 3.94174C63.124 3.94174 63.5629 4.04551 63.8541 4.25027C64.1853 4.48824 64.2773 4.8761 64.1301 5.41384H69.4368C69.6426 4.70137 69.7211 3.95802 69.6687 3.21814C69.6206 2.59613 69.3922 2.00176 69.0117 1.50808C68.6409 1.02568 68.0819 0.653502 67.3348 0.39155C66.5877 0.129597 65.6556 -0.000917513 64.5386 4.85457e-06C62.3304 4.85457e-06 60.337 0.470873 58.5584 1.41261C56.7799 2.35435 55.5069 3.70423 54.7396 5.46226C54.5957 5.77509 54.4771 6.09895 54.3849 6.43075C54.1815 7.19078 54.176 7.83183 54.3683 8.35389C54.5556 8.8722 54.896 9.32102 55.3441 9.64059Z" fill="white"/>
<path d="M73.1604 10.8761H78.7514L81.3861 4.93929H86.4085L88.389 0.45105H72.7546L70.7741 4.93929H75.7951L73.1604 10.8761Z" fill="white"/>
<path d="M51.5072 16.0409C51.6236 16.2147 51.7552 16.3776 51.9005 16.5279C52.4062 17.0236 53.0207 17.3937 53.6947 17.6085C54.5559 17.8858 55.4569 18.0181 56.3612 18C58.7774 18 60.9323 17.501 62.8258 16.503C63.1018 16.3646 63.3599 16.2042 63.6111 16.0409H51.5072Z" fill="white"/>
</g>
<defs>
<clipPath id="clip0">
<rect width="120" height="18" fill="white"/>
</clipPath>
</defs>
</svg>

<svg xmlns="http://www.w3.org/2000/svg" width="120" height="18" fill="none" xmlns:v="https://vecta.io/nano"><g clip-path="url(#A)" fill="#fff"><path d="M0 11.374l4.516-10.19H8.54L7.519 7.539l4.607-6.355h4.022l-4.516 10.19H8.64l1.38-3.113.745-1.586.991-1.833h-.025l-4.757 6.532H4.658l1.056-6.532h-.028l-.527 1.493-.636 1.586-1.531 3.459L0 11.374zm13.552 0l4.517-10.19h8.281l-1.059 2.378H20.34l-.643 1.457h4.193l-1.045 2.378h-4.193l-.711 1.595h5.152l-1.059 2.378-8.484.003zm19.926.028h-2.149l.311-1.004a6.31 6.31 0 0 1-1.609.899 5.51 5.51 0 0 1-1.998.346c-.529.009-1.056-.075-1.557-.248-.43-.147-.814-.406-1.112-.75-.298-.358-.485-.796-.54-1.259a4.42 4.42 0 0 1 .157-1.749 8.46 8.46 0 0 1 .442-1.23c.351-.8.806-1.549 1.352-2.229a9.26 9.26 0 0 1 1.836-1.742 8.41 8.41 0 0 1 2.186-1.125 7.33 7.33 0 0 1 2.378-.396c1.261 0 2.182.323 2.76.968s.705 1.582.38 2.81h-3.162c.135-.86-.244-1.289-1.137-1.288-.644 0-1.245.267-1.802.8s-1.042 1.262-1.452 2.186a6.68 6.68 0 0 0-.331.92c-.15.565-.136 1.014.043 1.345s.579.496 1.201.495a2.75 2.75 0 0 0 1.205-.332 2.61 2.61 0 0 0 1.014-.843h-1.466l.985-2.214h4.555L33.48 11.4zm1.109-.028l8.158-10.19h3.388l-.874 10.19h-3.312l.204-1.345h-3.312l-.98 1.345h-3.272zm8.474-7.118l-2.662 3.651h2.11l.552-3.651zm34.39 9.549H71.86l-.686 1.544h5.591l.686-1.544zm-20.779-.692c-.067-.273-.063-.559.012-.83h-5.352a5.59 5.59 0 0 0-.225.665l-.041.172 5.606-.007zm21.772-1.545h-5.59l-.686 1.545h5.59l.686-1.545zm36.879 3.06l.254-.595.102-.228h-5.365l-.326.751-.332.793h5.351l.316-.721zm-9.69-.823h-5.586l-.686 1.544h5.588l.684-1.544zm-44.752-2.074c.42.205.576.505.469.902l-.019.071c-.022.028-.038.061-.048.095a1.46 1.46 0 0 1-.186.314h5.33a9.5 9.5 0 0 0 .511-1.003l.222-.542h-6.65l.371.163zm36.865 3.618l.133-1.544H82.648l-1.237 1.544h5.315l.041-.057h5.566l-.008.057h5.421zm-7.723-4.473l3.834-5.271-.798 5.271h5.071L99.024.451H93.34l-8.347 10.425h5.031zm-24.052 2.929h-5.919a4.86 4.86 0 0 1-1.64.253 2.34 2.34 0 0 1-1.157-.253h-6.3a3.71 3.71 0 0 0 .072 1.119c.032.144.074.286.126.425H64.54a8.66 8.66 0 0 0 1.431-1.544zm34.383-.692h5.585l.674-1.522h1.705c.995 0 1.649.123 1.963.368.293.23.375.616.254 1.157h5.429l.259-.789a4.99 4.99 0 0 0 .146-.757h-15.331l-.684 1.543zm-8.134 2.928l-.229 1.508h5.566l.13-1.508H92.22zm.711-4.31H89.4l.119-.163h-5.08l-1.238 1.545h14.737l.133-1.545h-5.116l-.023.163zm6.124 4.31l-.668 1.508h5.591l.665-1.508h-5.588zM119.031 1.33c-.894-.585-2.565-.878-5.011-.879h-8.055l-4.621 10.425h15.003a1.03 1.03 0 0 0-.159-.38c-.255-.348-.75-.68-1.486-.998a6.38 6.38 0 0 0 2.81-1.522 8.13 8.13 0 0 0 1.907-2.659c.175-.384.321-.782.436-1.188.344-1.277.07-2.21-.824-2.799zM114 5.865c0 .017-.027.072-.069.166a1.42 1.42 0 0 0-.073.191 2.33 2.33 0 0 1-1.195 1.234c-.552.253-1.277.38-2.175.38h-2.208l1.499-3.395h2.605c.616 0 1.07.119 1.363.356s.377.593.253 1.068zM80.856 16.041l-1.206 1.508h5.472l1.099-1.508h-5.365zm33.717.415c.024-.087.073-.226.147-.415h-5.331l-.334 1.032a2.69 2.69 0 0 0-.059.309l-.044.167h5.658l.235-.523c-.282 0-.373-.19-.272-.57zm-43.705-.415l-.669 1.508h5.591l.668-1.508h-5.59zm-15.524-6.4c.448.328.941.588 1.464.772l1.5.463h9.043c.114-.5.087-1.023-.08-1.508a2.69 2.69 0 0 0-.966-1.259 5.81 5.81 0 0 0-1.438-.76l-2-.63c-.986-.268-1.692-.51-2.116-.724s-.584-.519-.479-.915l.04-.101c0-.015.01-.039.019-.071.283-.646 1.019-.968 2.208-.968.584 0 1.023.104 1.314.309.331.238.423.626.276 1.164h5.307a6.31 6.31 0 0 0 .232-2.196 3.2 3.2 0 0 0-.657-1.71c-.371-.482-.93-.855-1.677-1.117S65.656-.001 64.539 0c-2.208 0-4.202.471-5.98 1.413s-3.051 2.292-3.819 4.05a6.45 6.45 0 0 0-.355.968c-.203.76-.209 1.401-.017 1.923a2.73 2.73 0 0 0 .976 1.287zm17.816 1.235h5.591l2.635-5.937h5.022l1.98-4.488H72.755l-1.98 4.488h5.021l-2.635 5.937zm-21.653 5.165c.116.174.248.337.393.487a4.53 4.53 0 0 0 1.794 1.081c.861.277 1.762.41 2.666.392 2.416 0 4.571-.499 6.465-1.497.276-.138.534-.299.785-.462H51.507z"/></g><defs><clipPath id="A"><path fill="#fff" d="M0 0h120v18H0z"/></clipPath></defs></svg>
